X: 3193
T: Lady Douglas of Bothwell.   a Jig.
C: Daniel Dow
%R: jig
B: Niel Gow & Sons "Complete Repository" v.3 p.19 #3
Z: 2021 John Chambers <jc:trillian.mit.edu>
N: The keysig really should be K:Edor
M: 6/8
L: 1/8
K: Em
% - - - - - - - - - -
V: 1 staves=2
e |\
B2E G2E | BGE E2d | B2E G2B | AFD D2d | B2E G2B | ABG TF2D | EFE ~G2A | BGE E2 :| B |
efg Tf2e | ^def B2=d | AFA (B/^c/d).B | AFD D2B | efg Tf2e | ^d>ef B2=d | (B/^c/d)TB AFA | BGE E2B ||
efg fge | ^def B2=d | AFA (B/^c/d).B | AFD D2B | (TGFG) EGB | e^de Bge | d^cB AFA | BGE E2 |]
% - - - - - - - - - -
V: 2 clef=bass middle=d
z |\
e3 e3 | e3 e3 | e3 e3 | d3 d3 | e3 e3 | g3 a3 | b3 B3 | e3 E2 :| z |
e3 b3 | B3 g3 | f3 g3 | a3 d3 | e3 b3 | B3 e3 | g3 a3 | b3 d3 ||
e3 b3 | B3 g3 | f3 g3 | a3 d3 | e3 e3 | e3 g3 | a3 b3 | e3 e2 |]


